!!!OTL: Jixiehua you bentou
!!!ARE: Asia, China,ÿJiangsu Suzhou
!! III, 438
!!!SCT: C1788
!!!YEM: Copyright 1995, estate of Helmut Schaffrath.
**kern
*ICvox
*Ivox
!! Mixed meters:  2/4; 3/4; 4/4
*M4/4
*k[]
*C:
{4ee
8.ee
16dd
2cc
=1
4cc
2.ee}
=2
{4cc
4ee
[2dd
=3
4dd]
16gg
16ee
16dd
16cc
16dd
16cc
4.a}
=4
{8r
8dd
8cc
8dd
8cc
8dd
8cc
8dd
=5
*M3/4
8a
4.dd
8.a
16g
=6
2.g}
=7
*M2/4
{8cc
8a
8cc
8a
=8
8cc
8a
8cc
8a
=9
*M3/4
8cc
8a
8e
8cc
4a}
=10
{8cc
8a
8cc
8a
4a
=11
8cc
8a
8a
8cc
8a
8a}
=12
*M2/4
{8cc
8a
8e
8cc
=13
8.a
16a
8cc
8a}
=14
{8cc
8a
8a
8a
=15
8cc
8a
8e
8a
=16
8cc
8a
8e
8cc
=17
4a
4r}
=18
*M4/4
{16cc
16a
8a
8a
8cc
8dd
4ee
8gg
=19
1ee}
=20
{8cc
8ee
8gg
8ee
2dd}
=21
{8cc
8a
4.ee
16dd
16ee
8gg
8cc
=22
8a
8r
2a}
==
!!!AGN: Shange
!! Freely
!!!AMT: irregular
!!!AIN: vox
!!!EED: Helmut Schaffrath
!!!EEV: 1.0
*-
!!!ONB: Tied note syntax fixed by Craig Sapp, 2004/05/03/
